keyboard-f2.svg

<svg  viewBox="0 0 24 24" fill="currentColor"><path  d="M5 7H11V9H7V11H10V13H7V17H5V7M13 7H17C18.11 7 19 7.9 19 9V11C19 12.11 18.11 13 17 13H15V15H19V17H13V13C13 11.9 13.9 11 15 11H17V9H13V7Z"/></svg>

<svg fill="currentColor" viewBox="0 0 24 24"><path d="M5 7h6v2H7v2h3v2H7v4H5zm8 0h4a2 2 0 0 1 2 2v2c0 1.11-.89 2-2 2h-2v2h4v2h-6v-4c0-1.1.9-2 2-2h2V9h-4z"/></svg>
